X: 9
T:Banshee, The
T:McMahon's Reel
M:C|
L:1/8
C:James McMahon
R:Reel
K:G
DE[|:G3D EDEG|AGAB d2Bd|~e3d BAGA|BAGE EDDE|!
GFGD EDEG|AGAB d2Bd|eged BAGA|1BAGE EDDE:|2BAGE EDDd|!
|:eaag efge|dBBA B2Bd|eB~B2 gBfB|eBBA B2Bd|!
eaag efge|dBBA B2Bd|eged BAGA|1BAGE EDDd:|2BAGE EDDE|]!
